svgs/light/utility-pole-double.svg

<svg xmlns="http://www.w3.org/2000/svg" viewBox="0 0 512 512"><!-- Font Awesome Pro 6.0.0-alpha2 by @fontawesome - https://fontawesome.com License - https://fontawesome.com/license (Commercial License) --><path d="M452.844 128H480C497.674 128 512 113.672 512 96V48C512 39.162 504.836 32 496 32S480 39.162 480 48V96H416V48C416 39.162 408.836 32 400 32S384 39.162 384 48V96H304V32C304 14.326 289.674 0 272 0H240C222.326 0 208 14.326 208 32V96H128V48C128 39.162 120.836 32 112 32S96 39.162 96 48V96H32V48C32 39.162 24.836 32 16 32S0 39.162 0 48V96C0 113.672 14.326 128 32 128H59.156L208 227.234V288H128V240C128 231.162 120.836 224 112 224S96 231.162 96 240V288H32V240C32 231.162 24.836 224 16 224S0 231.162 0 240V288C0 305.672 14.326 320 32 320H59.156L208 419.234V496C208 504.836 215.164 512 224 512S240 504.836 240 496V320H272V496C272 504.836 279.164 512 288 512S304 504.836 304 496V419.234L452.844 320H480C497.674 320 512 305.672 512 288V240C512 231.162 504.836 224 496 224S480 231.162 480 240V288H416V240C416 231.162 408.836 224 400 224S384 231.162 384 240V288H304V227.234L452.844 128ZM304 128H395.158L304 188.775V128ZM240 32H272V96H240V32ZM116.842 128H208V188.775L116.842 128ZM208 380.775L116.842 320H208V380.775ZM395.158 320L304 380.775V320H395.158ZM240 288V128H272V288H240Z"/></svg>

<svg xmlns="http://www.w3.org/2000/svg" viewBox="0 0 512 512"><!--! Font Awesome Pro 6.3.0 by @fontawesome - https://fontawesome.com License - https://fontawesome.com/license (Commercial License) Copyright 2023 Fonticons, Inc. --><path d="M452.8 128H480c17.67 0 32-14.33 32-32V48C512 39.16 504.8 32 496 32S480 39.16 480 48V96h-64V48C416 39.16 408.8 32 400 32S384 39.16 384 48V96h-80V32c0-17.67-14.33-32-32-32h-32c-17.67 0-32 14.33-32 32v64H128V48C128 39.16 120.8 32 112 32S96 39.16 96 48V96H32V48C32 39.16 24.84 32 16 32S0 39.16 0 48V96c0 17.67 14.33 32 32 32h27.16L208 227.2V288H128V240C128 231.2 120.8 224 112 224S96 231.2 96 240V288H32V240C32 231.2 24.84 224 16 224S0 231.2 0 240V288c0 17.67 14.33 32 32 32h27.16L208 419.2V496C208 504.8 215.2 512 224 512s16-7.164 16-16V320h32v176c0 8.836 7.164 16 16 16s16-7.164 16-16v-76.77L452.8 320H480c17.67 0 32-14.33 32-32V240C512 231.2 504.8 224 496 224S480 231.2 480 240V288h-64V240C416 231.2 408.8 224 400 224S384 231.2 384 240V288h-80V227.2L452.8 128zM304 128h91.16L304 188.8V128zM240 32h32v64h-32V32zM116.8 128H208v60.78L116.8 128zM208 380.8L116.8 320H208V380.8zM395.2 320L304 380.8V320H395.2zM240 288V128h32v160H240z"/></svg>
